icons/svg/poi_colored/satellite_dish.svg

<svg xmlns:ns0="http://sodipodi.sourceforge.net/DTD/sodipodi-0.dtd" xmlns:ns1="http://www.inkscape.org/namespaces/inkscape" xmlns:rdf="http://www.w3.org/1999/02/22-rdf-syntax-ns#" width="48" height="48" viewBox="0 0 48 48" version="1.1" id="svg6" ns0:docname="satellite_dish.svg" style="fill:none" ns1:version="0.92.5 (2060ec1f9f, 2020-04-08)" xmlns="http://www.w3.org/2000/svg">
  <metadata id="metadata12">
    <RDF>
      <Work rdf:about="">
        <format>image/svg+xml</format>
        <type rdf:resource="http://purl.org/dc/dcmitype/StillImage" />
        <title />
      </Work>
    </RDF>
  </metadata>
  <defs id="defs10">
    <clipPath id="clip0">
      <path style="fill:#ffffff" ns1:connector-curvature="0" d="M 0,0 H 580 V 580 H 0 Z" id="path6" />
    </clipPath>
  </defs>
  <namedview pagecolor="#ffffff" bordercolor="#666666" borderopacity="1" objecttolerance="10" gridtolerance="10" guidetolerance="10" ns1:pageopacity="0" ns1:pageshadow="2" ns1:window-width="1920" ns1:window-height="1014" id="namedview8" showgrid="true" ns1:snap-grids="true" ns1:zoom="13.02069" ns1:cx="15.047657" ns1:cy="25.315559" ns1:window-x="1920" ns1:window-y="0" ns1:window-maximized="1" ns1:current-layer="svg6">
    <grid type="xygrid" id="grid822" spacingx="2" spacingy="2" />
  </namedview>
  <path style="fill:#ffffff;fill-opacity:1;stroke-width:1;font-variant-east_asian:normal;opacity:1;vector-effect:none;stroke-linecap:butt;stroke-linejoin:miter;stroke-miterlimit:4;stroke-dasharray:none;stroke-dashoffset:0;stroke-opacity:1" d="M 15.882812 6 C 13.936184 5.988361 12.287202 6.5232487 11.130859 7.6933594 C 7.1437122 11.728479 1.1881618 23.904841 12.736328 35.59375 C 23.299568 46.28591 36.317392 41.253757 40.306641 37.21875 C 43.486584 34.00075 42.03581 27.104468 37.228516 20.289062 C 36.324874 21.028063 35.25477 23.497733 35.755859 24.351562 C 38.134899 28.412647 38.821643 32.020052 37.162109 33.697266 C 34.60745 36.282589 27.466257 33.299707 21.234375 26.994141 C 14.999408 20.685453 12.052356 13.46653 14.611328 10.876953 C 16.174426 9.2928554 19.430606 9.7948841 23.175781 11.892578 C 24.051553 12.382334 26.542618 11.327576 27.257812 10.402344 C 23.169141 7.5770661 19.127119 6.019586 15.882812 6 z M 32 12 A 4 4 0 0 0 28.185547 14.796875 L 21.853516 15.587891 C 20.767841 15.545811 19.900866 16.491656 20.025391 17.583984 C 20.149917 18.676309 21.208227 19.400589 22.255859 19.109375 L 28.798828 18.392578 A 4 4 0 0 0 29.669922 19.246094 L 28.880859 25.8125 C 28.5931 26.872817 29.307458 27.944294 30.386719 28.070312 C 31.46609 28.196334 32.40291 27.317458 32.361328 26.21875 L 33.09375 19.845703 A 4 4 0 0 0 36 16 A 4 4 0 0 0 32 12 z " id="path4" />
</svg>

<svg width="48" height="48" fill="none" version="1.1" viewBox="0 0 48 48" xmlns="http://www.w3.org/2000/svg">
 <namedview bordercolor="#666666" borderopacity="1" gridtolerance="10" guidetolerance="10" objecttolerance="10" pagecolor="#ffffff" showgrid="true">
  <grid spacingx="2" spacingy="2" type="xygrid"/>
 </namedview>
 <path d="m15.883 6c-1.9466-0.011639-3.5956 0.52325-4.752 1.6934-3.9871 4.0351-9.9427 16.211 1.6055 27.9 10.563 10.692 23.581 5.66 27.57 1.625 3.1799-3.218 1.7292-10.114-3.0781-16.93-0.90364 0.739-1.9737 3.2087-1.4727 4.0625 2.379 4.0611 3.0658 7.6685 1.4062 9.3457-2.5547 2.5853-9.6959-0.39756-15.928-6.7031-6.235-6.3087-9.182-13.528-6.623-16.117 1.5631-1.5841 4.8193-1.0821 8.5645 1.0156 0.87577 0.48976 3.3668-0.565 4.082-1.4902-4.0887-2.8253-8.1307-4.3828-11.375-4.4023zm16.117 6a4 4 0 0 0-3.8145 2.7969l-6.332 0.79102c-1.0857-0.04208-1.9526 0.90376-1.8281 1.9961 0.12453 1.0923 1.1828 1.8166 2.2305 1.5254l6.543-0.7168a4 4 0 0 0 0.87109 0.85352l-0.78906 6.5664c-0.28776 1.0603 0.4266 2.1318 1.5059 2.2578 1.0794 0.12602 2.0162-0.75285 1.9746-1.8516l0.73242-6.373a4 4 0 0 0 2.9062-3.8457 4 4 0 0 0-4-4z" fill="#ffffff" style="font-variant-east_asian:normal"/>
</svg>
